svg/logo.svg

<svg xmlns="http://www.w3.org/2000/svg" xmlns:x="http://www.w3.org/1999/xlink" viewBox="0 0 860 100" fill="#08f">
    <path d="M48 18s-24-1-24 23h58v18H24c0 24 24 23 24 23h34v18H46C10 100 0 79 0 50 0 17 15 0 46 0h36v18m8 8h22l20 53 22-53h21l-33 74h-21zm330-8v23h29c1 0 17 2 17-11 0-14-16-12-16-12zm29 65c1 0 17 1 17-12s-16-12-16-12h-29v24m34 17h-55V0h56s33-1 33 26c0 11-6 20-16 24 11 4 16 13 16 23 0 30-34 27-34 27m165 0s-37 4-37-37c0-39 37-37 37-37h28v16h-25s-19-1-19 13v16c0 14 18 13 18 13h26v16zM661 0h19v61l32-35h24l-34 37 34 37h-26l-30-35v35h-19"/>
    <path id="b" d="M216 100s-37 4-37-37c0-39 37-37 37-37h28v16h-25s-19-1-19 13h44v16h-44c0 14 19 13 19 13h25v16"/>
    <path id="a" d="M257 26h36c23 0 31 9 31 28v46h-19V56c0-15-13-14-13-14h-16v58h-19"/>
    <path id="c" d="M333 26h14V0h19v26h21v16h-21v29c0 10 4 14 13 14h8v15h-18c-16 0-22-9-22-23V42h-14"/>
    <use x:href="#a" transform="rotate(180 413.5 63)"/>
    <use x:href="#b" transform="translate(555)"/>
    <use x:href="#c" transform="translate(471)"/>
</svg>

<svg xmlns='http://www.w3.org/2000/svg' xmlns:x='http://www.w3.org/1999/xlink' viewBox='0 0 860 100' fill='#08f'><path d='m48 18c0 0-24-1-24 23l58 0 0 18-58 0c0 24 24 23 24 23l34 0 0 18-36 0C10 100 0 79 0 50 0 17 15 0 46 0l36 0 0 18M90 26 112 26l20 53 22-53 21 0-33 74-21 0zm330 -8 0 23 29 0C450 41 466 43 466 30 466 16 450 18 450 18zm29 65C450 83 466 84 466 71 466 58 450 59 450 59L421 59l0 24M455 100 400 100 400 0 456 0c0 0 33-1 33 26 0 11-6 20-16 24 11 4 16 13 16 23 0 30-34 27-34 27m165 0c0 0-37 4-37-37 0-39 37-37 37-37l28 0 0 16-25 0c0 0-19-1-19 13l0 16c0 14 18 13 18 13l26 0 0 16zm41 -100 19 0L680 61 712 26 736 26 702 63 736 100 710 100 680 65l0 35-19 0'/><path id='e' d='m216 100c0 0-37 4-37-37 0-39 37-37 37-37l28 0 0 16-25 0c0 0-19-1-19 13l44 0 0 16-44 0c0 14 19 13 19 13l25 0 0 16'/><path id='n' d='m257 26 36 0c23 0 31 9 31 28l0 46-19 0 0-44C305 41 292 42 292 42l-16 0 0 58-19 0'/><path id='t' d='m333 26 14 0 0-26 19 0 0 26 21 0 0 16-21 0 0 29c0 10 4 14 13 14L387 85l0 15-18 0c-16 0-22-9-22-23l0-35-14 0'/><use x:href='#n' transform='matrix(-1,0,0,-1,827,126)'/><use x:href='#e' transform='translate(555,0)'/><use x:href='#t' transform='translate(471,0)'/></svg>
